X:286
T:Astley's Ride
M:4/4
L:1/8
K:G
dB | G2 G2 G2 FG | A2 A2 A2 BA | GFED E2 F2 | GABc dcBA |
G2 G2 G2 FG | A2 A2 A2 BA | GFED E2 F2 | G4 G2 :||
D2 | B2 B2 B2 AB | c2 c2 c2 ec | A2 A2 A2 GA | B2 B2 B2 dB |
G2 G2 G2 FG | A2 A2 A2 BA | GFED E2 F2 | G4 G2 :||
